svg/fluentui-system-icons/ic_fluent_document_footer_16_regular.svg

<svg width="16" height="16" viewBox="0 0 16 16" fill="none" xmlns="http://www.w3.org/2000/svg">
<path d="M6 11C5.44772 11 5 11.4477 5 12C5 12.5523 5.44772 13 6 13H10C10.5523 13 11 12.5523 11 12C11 11.4477 10.5523 11 10 11H6ZM4.75 1C3.7835 1 3 1.7835 3 2.75V13.25C3 14.2165 3.7835 15 4.75 15H11.25C12.2165 15 13 14.2165 13 13.25V2.75C13 1.7835 12.2165 1 11.25 1H4.75ZM4 2.75C4 2.33579 4.33579 2 4.75 2H11.25C11.6642 2 12 2.33579 12 2.75V13.25C12 13.6642 11.6642 14 11.25 14H4.75C4.33579 14 4 13.6642 4 13.25V2.75Z" fill="#212121"/>
</svg>

<svg xmlns="http://www.w3.org/2000/svg" width="16" height="16"><path d="M6 11a1 1 0 1 0 0 2h4a1 1 0 1 0 0-2H6ZM4.75 1A1.75 1.75 0 0 0 3 2.75v10.5c0 .966.784 1.75 1.75 1.75h6.5A1.75 1.75 0 0 0 13 13.25V2.75A1.75 1.75 0 0 0 11.25 1h-6.5ZM4 2.75A.75.75 0 0 1 4.75 2h6.5a.75.75 0 0 1 .75.75v10.5a.75.75 0 0 1-.75.75h-6.5a.75.75 0 0 1-.75-.75V2.75Z"/></svg>
